assets/images/Button1.svg

<svg width="87" height="105" viewBox="0 0 87 105" fill="none" xmlns="http://www.w3.org/2000/svg">
<path d="M86.5 68.5C86.5 88.3037 67.334 104.5 43.5 104.5C19.666 104.5 0.5 88.3037 0.5 68.5C0.5 48.6963 19.666 32.5 43.5 32.5C67.334 32.5 86.5 48.6963 86.5 68.5Z" fill="#D9D9D9" stroke="black"/>
<path d="M86.5 52.5C86.5 72.3037 67.334 88.5 43.5 88.5C19.666 88.5 0.5 72.3037 0.5 52.5C0.5 32.6963 19.666 16.5 43.5 16.5C67.334 16.5 86.5 32.6963 86.5 52.5Z" fill="#D9D9D9" stroke="black"/>
<line x1="0.5" y1="52" x2="0.5" y2="70" stroke="black"/>
<line x1="86.5" y1="52" x2="86.5" y2="69" stroke="black"/>
<path d="M79 51C79 66.2508 63.1229 79 43 79C22.8771 79 7 66.2508 7 51C7 35.7492 22.8771 23 43 23C63.1229 23 79 35.7492 79 51Z" fill="#E62727" stroke="black" stroke-width="2"/>
<line x1="7" y1="50" x2="7" y2="29" stroke="black" stroke-width="2"/>
<line x1="79" y1="51" x2="79" y2="30" stroke="black" stroke-width="2"/>
<rect x="8" y="26" width="70" height="24" fill="#E62727"/>
<path d="M79 31C79 46.2508 63.1229 59 43 59C22.8771 59 7 46.2508 7 31C7 15.7492 22.8771 3 43 3C63.1229 3 79 15.7492 79 31Z" fill="#E62727" stroke="black" stroke-width="2"/>
<path d="M28.2486 27H24.8906V18.2727H28.2145C29.1122 18.2727 29.8878 18.4474 30.5412 18.7969C31.1974 19.1435 31.7031 19.6435 32.0582 20.2969C32.4162 20.9474 32.5952 21.7273 32.5952 22.6364C32.5952 23.5455 32.4176 24.3267 32.0625 24.9801C31.7074 25.6307 31.2045 26.1307 30.554 26.4801C29.9034 26.8267 29.1349 27 28.2486 27ZM27.2599 24.9886H28.1634C28.5952 24.9886 28.9631 24.919 29.267 24.7798C29.5739 24.6406 29.8068 24.4006 29.9659 24.0597C30.1278 23.7187 30.2088 23.2443 30.2088 22.6364C30.2088 22.0284 30.1264 21.554 29.9616 21.2131C29.7997 20.8722 29.5611 20.6321 29.2457 20.4929C28.9332 20.3537 28.5497 20.2841 28.0952 20.2841H27.2599V24.9886ZM42.146 22.6364C42.146 23.608 41.957 24.4276 41.5792 25.0952C41.2013 25.7599 40.6914 26.2642 40.0494 26.608C39.4073 26.9489 38.6914 27.1193 37.9016 27.1193C37.1062 27.1193 36.3874 26.9474 35.7454 26.6037C35.1062 26.2571 34.5977 25.7514 34.2198 25.0866C33.8448 24.419 33.6573 23.6023 33.6573 22.6364C33.6573 21.6648 33.8448 20.8466 34.2198 20.1818C34.5977 19.5142 35.1062 19.0099 35.7454 18.669C36.3874 18.3253 37.1062 18.1534 37.9016 18.1534C38.6914 18.1534 39.4073 18.3253 40.0494 18.669C40.6914 19.0099 41.2013 19.5142 41.5792 20.1818C41.957 20.8466 42.146 21.6648 42.146 22.6364ZM39.7085 22.6364C39.7085 22.1136 39.6388 21.6733 39.4996 21.3153C39.3633 20.9545 39.1602 20.6818 38.8903 20.4972C38.6232 20.3097 38.2937 20.2159 37.9016 20.2159C37.5096 20.2159 37.1786 20.3097 36.9087 20.4972C36.6417 20.6818 36.4386 20.9545 36.2994 21.3153C36.163 21.6733 36.0948 22.1136 36.0948 22.6364C36.0948 23.1591 36.163 23.6009 36.2994 23.9616C36.4386 24.3196 36.6417 24.5923 36.9087 24.7798C37.1786 24.9645 37.5096 25.0568 37.9016 25.0568C38.2937 25.0568 38.6232 24.9645 38.8903 24.7798C39.1602 24.5923 39.3633 24.3196 39.4996 23.9616C39.6388 23.6009 39.7085 23.1591 39.7085 22.6364ZM50.7933 18.2727V27H48.8161L45.6626 22.4148H45.6115V27H43.2422V18.2727H45.2536L48.3558 22.8409H48.424V18.2727H50.7933ZM53.8913 18.2727V19.2955C53.8913 19.5739 53.8345 19.8523 53.7209 20.1307C53.6101 20.4062 53.468 20.6634 53.2947 20.902C53.1243 21.1378 52.9482 21.3352 52.7663 21.4943L51.7947 21C51.9141 20.7955 52.0206 20.5582 52.1143 20.2884C52.2081 20.0185 52.255 19.6875 52.255 19.2955V18.2727H53.8913ZM54.7575 20.1818V18.2727H62.3427V20.1818H59.7177V27H57.3825V20.1818H54.7575ZM21.693 35.1818V33.2727H29.2782V35.1818H26.6532V42H24.318V35.1818H21.693ZM38.2143 37.6364C38.2143 38.608 38.0254 39.4276 37.6476 40.0952C37.2697 40.7599 36.7598 41.2642 36.1177 41.608C35.4757 41.9489 34.7598 42.1193 33.97 42.1193C33.1745 42.1193 32.4558 41.9474 31.8137 41.6037C31.1745 41.2571 30.666 40.7514 30.2882 40.0866C29.9132 39.419 29.7257 38.6023 29.7257 37.6364C29.7257 36.6648 29.9132 35.8466 30.2882 35.1818C30.666 34.5142 31.1745 34.0099 31.8137 33.669C32.4558 33.3253 33.1745 33.1534 33.97 33.1534C34.7598 33.1534 35.4757 33.3253 36.1177 33.669C36.7598 34.0099 37.2697 34.5142 37.6476 35.1818C38.0254 35.8466 38.2143 36.6648 38.2143 37.6364ZM35.7768 37.6364C35.7768 37.1136 35.7072 36.6733 35.568 36.3153C35.4316 35.9545 35.2285 35.6818 34.9586 35.4972C34.6916 35.3097 34.362 35.2159 33.97 35.2159C33.5779 35.2159 33.247 35.3097 32.9771 35.4972C32.71 35.6818 32.5069 35.9545 32.3677 36.3153C32.2314 36.6733 32.1632 37.1136 32.1632 37.6364C32.1632 38.1591 32.2314 38.6009 32.3677 38.9616C32.5069 39.3196 32.71 39.5923 32.9771 39.7798C33.247 39.9645 33.5779 40.0568 33.97 40.0568C34.362 40.0568 34.6916 39.9645 34.9586 39.7798C35.2285 39.5923 35.4316 39.3196 35.568 38.9616C35.7072 38.6009 35.7768 38.1591 35.7768 37.6364ZM44.4753 33.2727H46.8446V38.8636C46.8446 39.5284 46.6855 40.1037 46.3674 40.5895C46.052 41.0724 45.6117 41.446 45.0463 41.7102C44.481 41.9716 43.8248 42.1023 43.0776 42.1023C42.3248 42.1023 41.6657 41.9716 41.1003 41.7102C40.535 41.446 40.0946 41.0724 39.7793 40.5895C39.4668 40.1037 39.3105 39.5284 39.3105 38.8636V33.2727H41.6799V38.6591C41.6799 38.929 41.7395 39.1705 41.8588 39.3835C41.9782 39.5937 42.1429 39.7585 42.3532 39.8778C42.5662 39.9972 42.8077 40.0568 43.0776 40.0568C43.3503 40.0568 43.5918 39.9972 43.802 39.8778C44.0123 39.7585 44.177 39.5937 44.2963 39.3835C44.4157 39.1705 44.4753 38.929 44.4753 38.6591V33.2727ZM56.1184 36.5455H53.715C53.698 36.3466 53.6525 36.1662 53.5787 36.0043C53.5076 35.8423 53.4082 35.7031 53.2804 35.5866C53.1554 35.4673 53.0034 35.3764 52.8244 35.3139C52.6454 35.2486 52.4423 35.2159 52.215 35.2159C51.8173 35.2159 51.4806 35.3125 51.2051 35.5057C50.9324 35.6989 50.725 35.9759 50.5829 36.3366C50.4437 36.6974 50.3741 37.1307 50.3741 37.6364C50.3741 38.1705 50.4451 38.6179 50.5872 38.9787C50.7321 39.3366 50.9409 39.6065 51.2136 39.7884C51.4863 39.9673 51.8145 40.0568 52.198 40.0568C52.4167 40.0568 52.6127 40.0298 52.786 39.9759C52.9593 39.919 53.1099 39.8381 53.2377 39.733C53.3656 39.6278 53.4693 39.5014 53.5488 39.3537C53.6312 39.2031 53.6866 39.0341 53.715 38.8466L56.1184 38.8636C56.09 39.233 55.9863 39.6094 55.8074 39.9929C55.6284 40.3736 55.3741 40.7259 55.0446 41.0497C54.7179 41.3707 54.313 41.6293 53.8301 41.8253C53.3471 42.0213 52.786 42.1193 52.1468 42.1193C51.3457 42.1193 50.627 41.9474 49.9906 41.6037C49.3571 41.2599 48.8556 40.7543 48.4863 40.0866C48.1199 39.419 47.9366 38.6023 47.9366 37.6364C47.9366 36.6648 48.1241 35.8466 48.4991 35.1818C48.8741 34.5142 49.3798 34.0099 50.0162 33.669C50.6525 33.3253 51.3627 33.1534 52.1468 33.1534C52.698 33.1534 53.2051 33.2287 53.6681 33.3793C54.1312 33.5298 54.5375 33.75 54.8869 34.0398C55.2363 34.3267 55.5176 34.6804 55.7306 35.1009C55.9437 35.5213 56.073 36.0028 56.1184 36.5455ZM57.1934 42V33.2727H59.5627V36.6818H62.699V33.2727H65.0684V42H62.699V38.5909H59.5627V42H57.1934Z" fill="white"/>
</svg>

<?xml version="1.0" encoding="UTF-8"?>
<svg id="Button1" xmlns="http://www.w3.org/2000/svg" viewBox="0 0 94.34 105" width="50" height="50">
  <defs>
    <style>
      .cls-1 {
        fill: #b72323;
      }

      .cls-1, .cls-2 {
        stroke-width: 2px;
      }

      .cls-1, .cls-2, .cls-3 {
        stroke: #000;
      }

      .cls-4 {
        fill: #a62727;
      }

      .cls-4, .cls-5, .cls-6, .cls-7, .cls-8 {
        stroke-width: 0px;
      }

      .cls-2 {
        fill: #e62727;
      }

      .cls-5 {
        fill: #1b1c28;
      }

      .cls-3 {
        fill: #1e2037;
      }

      .cls-6 {
        fill: #f94b4b;
      }

      .cls-7 {
        fill: #fff;
      }

      .cls-8 {
        fill: #2a2d3f;
      }
    </style>
  </defs>
  <g id="Bot_blue">
    <path class="cls-3" d="M86.5,52.5v16c0,19.8-19.17,36-43,36S.5,88.3.5,68.5v-16c0,2.75.37,5.43,1.07,8,4.34,15.99,21.41,28,41.93,28s37.59-12.01,41.93-28c.7-2.57,1.07-5.25,1.07-8Z"/>
    <path class="cls-5" d="M86,67.89v.61c0,19.58-19.07,35.5-42.5,35.5-.75,0-1.49-.02-2.22-.05,1.65-.41,3.29-.82,4.94-1.23,1.92-.5,3.91-1.08,5.98-1.74,2.78-.89,5.38-1.85,7.79-2.82,2.77-.98,6.53-2.65,10.45-5.55,3.29-2.44,5.68-5,7.34-7.07,1.99-2.45,4.39-6,6.21-10.66,1-2.55,1.62-4.93,2.02-6.99Z"/>
  </g>
  <g id="Top_blue">
    <path class="cls-3" d="M86.5,52.5c0,2.75-.37,5.43-1.07,8-4.34,15.99-21.41,28-41.93,28S5.91,76.49,1.57,60.5c-.7-2.57-1.07-5.25-1.07-8C.5,32.7,19.67,16.5,43.5,16.5s43,16.2,43,36Z"/>
    <path class="cls-8" d="M39.16,87.81c-18.08-1.5-33.01-12.36-37.11-27.44-.7-2.57-1.05-5.21-1.05-7.87,0-4.9,1.2-9.57,3.36-13.82-.61,2.27-1.25,5.47-1.34,9.34-.05,2.18-.14,7.85,2.05,13.62,3.15,8.32,10.48,13.5,17.67,18.16,4.33,2.8,8.72,4.95,13.51,6.86,1.44.57,2.95,1.15,2.91,1.15Z"/>
  </g>
  <g id="Bot_red">
    <path class="cls-1" d="M79,31v20c0,15.25-15.88,28-36,28S7,66.25,7,51v-20h13.76c6.09-3.75,13.79-6,22.24-6s16.15,2.25,22.24,6h13.76Z"/>
    <path class="cls-4" d="M77.98,40.67c0,3.44.01,6.89.02,10.33,0,14.89-15.7,27-35,27-5.37,0-10.46-.94-15.01-2.62,1.59.05,3.82.11,6.49.1,1.33,0,3.98-.02,6.31-.14,3.37-.18,8.3-.45,14.12-2.39,4.62-1.54,7.75-3.45,8.56-3.96,2.06-1.28,4.91-3.09,7.63-6.41.4-.49,2.04-2.53,3.57-5.73,2.87-6,3.39-11.98,3.32-16.17Z"/>
  </g>
  <g id="Top_red">
    <g id="Top_red-2" data-name="Top_red">
      <path class="cls-2" d="M79,31c0,15.25-15.88,28-36,28S7,46.25,7,31,22.88,3,43,3s36,12.75,36,28Z"/>
      <path class="cls-4" d="M78,31c0,14.89-15.7,27-35,27-.84,0-5.94-.13-5.94-.4,0-.11.79-.19,2.04-.34,2.04-.25,4.07-.56,6.11-.81,2.56-.31,5.17-.63,8.19-1.6,3.17-1.02,5.44-2.31,6.96-3.2,1.37-.8,3.72-2.17,6.31-4.52,2.65-2.4,4.22-4.6,5.45-6.35,1.74-2.46,3.98-6.13,5.84-11.02.03.42.04.83.04,1.25Z"/>
    </g>
    <path class="cls-6" d="M71.17,15c-2.05-.89-4.2-1.76-6.46-2.6-4.54-1.69-8.88-3.01-12.93-4.05-3.89-.84-8.72-1.35-14.14-.74-5.07.57-8.72,1.89-9.84,2.32-2.75,1.05-5.27,2.31-7.51,4.22-1.34,1.15-2.77,2.3-4.02,3.59-1.32,1.35-2.35,2.91-3.45,4.44-1.08,1.51-1.71,3.09-2.43,4.79-.78,1.86-1.55,3.71-2.33,5.57-.04-.51-.06-1.02-.06-1.53,0-14.89,15.7-27,35-27,11.54,0,21.79,4.33,28.17,11Z"/>
    <path id="Text" class="cls-7" d="M28.25,27h-3.36v-8.73h3.32c.9,0,1.67.17,2.33.52.66.35,1.16.85,1.52,1.5.36.65.54,1.43.54,2.34s-.18,1.69-.53,2.34c-.36.65-.86,1.15-1.51,1.5-.65.35-1.42.52-2.31.52ZM27.26,24.99h.9c.43,0,.8-.07,1.1-.21.31-.14.54-.38.7-.72.16-.34.24-.82.24-1.42s-.08-1.08-.25-1.42c-.16-.34-.4-.58-.72-.72-.31-.14-.7-.21-1.15-.21h-.84v4.7ZM42.15,22.64c0,.97-.19,1.79-.57,2.46-.38.66-.89,1.17-1.53,1.51-.64.34-1.36.51-2.15.51s-1.51-.17-2.16-.52c-.64-.35-1.15-.85-1.53-1.52-.38-.67-.56-1.48-.56-2.45s.19-1.79.56-2.45c.38-.67.89-1.17,1.53-1.51.64-.34,1.36-.52,2.16-.52s1.51.17,2.15.52c.64.34,1.15.85,1.53,1.51.38.66.57,1.48.57,2.45ZM39.71,22.64c0-.52-.07-.96-.21-1.32-.14-.36-.34-.63-.61-.82-.27-.19-.6-.28-.99-.28s-.72.09-.99.28c-.27.18-.47.46-.61.82-.14.36-.2.8-.2,1.32s.07.96.2,1.33c.14.36.34.63.61.82.27.18.6.28.99.28s.72-.09.99-.28c.27-.19.47-.46.61-.82.14-.36.21-.8.21-1.33ZM50.79,18.27v8.73h-1.98l-3.15-4.59h-.05v4.59h-2.37v-8.73h2.01l3.1,4.57h.07v-4.57h2.37ZM53.89,18.27v1.02c0,.28-.06.56-.17.84-.11.28-.25.53-.43.77-.17.24-.35.43-.53.59l-.97-.49c.12-.2.23-.44.32-.71.09-.27.14-.6.14-.99v-1.02h1.64ZM54.76,20.18v-1.91h7.59v1.91h-2.62v6.82h-2.34v-6.82h-2.62ZM21.69,35.18v-1.91h7.59v1.91h-2.62v6.82h-2.34v-6.82h-2.62ZM38.21,37.64c0,.97-.19,1.79-.57,2.46-.38.66-.89,1.17-1.53,1.51-.64.34-1.36.51-2.15.51s-1.51-.17-2.16-.52c-.64-.35-1.15-.85-1.53-1.52-.38-.67-.56-1.48-.56-2.45s.19-1.79.56-2.45c.38-.67.89-1.17,1.53-1.51.64-.34,1.36-.52,2.16-.52s1.51.17,2.15.52c.64.34,1.15.85,1.53,1.51.38.66.57,1.48.57,2.45ZM35.78,37.64c0-.52-.07-.96-.21-1.32-.14-.36-.34-.63-.61-.82-.27-.19-.6-.28-.99-.28s-.72.09-.99.28c-.27.18-.47.46-.61.82-.14.36-.2.8-.2,1.32s.07.96.2,1.33c.14.36.34.63.61.82.27.18.6.28.99.28s.72-.09.99-.28c.27-.19.47-.46.61-.82.14-.36.21-.8.21-1.33ZM44.48,33.27h2.37v5.59c0,.66-.16,1.24-.48,1.73-.32.48-.76.86-1.32,1.12-.57.26-1.22.39-1.97.39s-1.41-.13-1.98-.39c-.57-.26-1.01-.64-1.32-1.12-.31-.49-.47-1.06-.47-1.73v-5.59h2.37v5.39c0,.27.06.51.18.72.12.21.28.38.49.49.21.12.45.18.72.18s.51-.06.72-.18c.21-.12.38-.28.49-.49.12-.21.18-.45.18-.72v-5.39ZM56.12,36.55h-2.4c-.02-.2-.06-.38-.14-.54-.07-.16-.17-.3-.3-.42-.12-.12-.28-.21-.46-.27-.18-.07-.38-.1-.61-.1-.4,0-.73.1-1.01.29-.27.19-.48.47-.62.83-.14.36-.21.79-.21,1.3,0,.53.07.98.21,1.34.14.36.35.63.63.81.27.18.6.27.98.27.22,0,.41-.03.59-.08.17-.06.32-.14.45-.24.13-.11.23-.23.31-.38.08-.15.14-.32.17-.51l2.4.02c-.03.37-.13.75-.31,1.13-.18.38-.43.73-.76,1.06-.33.32-.73.58-1.21.78-.48.2-1.04.29-1.68.29-.8,0-1.52-.17-2.16-.52-.63-.34-1.14-.85-1.5-1.52-.37-.67-.55-1.48-.55-2.45s.19-1.79.56-2.45c.38-.67.88-1.17,1.52-1.51.64-.34,1.35-.52,2.13-.52.55,0,1.06.08,1.52.23.46.15.87.37,1.22.66.35.29.63.64.84,1.06.21.42.34.9.39,1.44ZM57.19,42v-8.73h2.37v3.41h3.14v-3.41h2.37v8.73h-2.37v-3.41h-3.14v3.41h-2.37Z"/>
  </g>
</svg>
